icons/security-shield-plus-filled.svg

<svg viewBox="0 0 24 24"><path fill="currentColor" fill-rule="evenodd" d="M10.7 3a3 3 0 0 1 2.6 0l5.9 3v8c0 2.8-2.6 4.7-7.2 7.6q-7-4.4-7.2-7.6v-8zm2.3 5.2a1 1 0 1 0-2 0v1.7h-1.7a1 1 0 0 0 0 2h1.7v1.7a1 1 0 1 0 2 0v-1.7h1.7a1 1 0 1 0 0-2h-1.7z" clip-rule="evenodd"/></svg>

<svg viewBox="0 0 24 24"><path fill="currentColor" fill-rule="evenodd" d="M10.7 3a3 3 0 0 1 2.6 0l5.9 3v8c0 2.8-2.6 4.7-7.2 7.6Q5 17.2 4.8 14V6zM13 8.3a1 1 0 1 0-2 0V10H9.3a1 1 0 0 0 0 2H11v1.7a1 1 0 1 0 2 0V12h1.7a1 1 0 1 0 0-2H13z" clip-rule="evenodd"/></svg>
